X: 1310
T: Küşâde Taliim Hem-Bahtım Uygun
C: Şevki Bey
O: Turkey
F: http://compmusic.upf.edu/node/140
N: huzzam--sarki--curcuna--kusade_taliim--sevki_bey
N: makam= huzzam
N: form= sarki
N: usul= curcuna = 10/8
M: 10/8
L: 1/16
K: C _1/4B _3/4e ^3/4f 
Q: 1/4=200
%%MIDI tuningsystem comma53
a4 g2f4z4d2 e2f2  | g4 f2e4z4c2 d2e2  | \
w:  ARANAĞME  |   | 
f4 e2d4d2 c2B2 A2G2  | 
w:   | 
A2B2 c2d2 e2f2 a2g6  | a4 g2f4z4d2 e2f2  | \
w:   |  ARANAĞME  | 
g4 f2e4z4c2 d2e2  | 
w:   | 
f4 e2d4d2 c2B2 A2G2  | B2c2 d2e2 f2d2 c2B6  | \
w:   |   | 
z4 c2d4d8e2  | 
w:  Kü şa de   | 
f4 e2e2 d2d2 c2d4z2  | e2d2 c2B2 c2d2 e2f2 e2d2  | \
w:  ta *  li *  im   |  hem   | 
a4 g2g2 f2f2 e2f2 e2d2  | 
w:  bah *  tım  *  uy  | 
d4 _1/4e2d2 c2B2 A2G6  | z4 c2d4d8e2  | \
w:  gun   SAZ  |  Kü şa de   | 
f4 e2e2 d2d2 c2d4z2  | e2d2 c2B2 c2d2 e2f2 e2d2  | 
w:  ta *  li *  im   |  hem   | 
a4 g2g2 f2f2 e2f2 e2d2  | d4 e2d2 c2B2 c2d2 e2f2  | \
w:  bah *  tım  *  uy  |  gun    | 
g4 g2f2 e2d2 e2f2 f2e2  | 
w:  A man  *  *  sâ  | 
d2e2 f4 e2d2 e2f4e2  | d4 g2g4g2 a2f2 e2d2  | \
w:  ki   |  *  ba na  hiç   | 
d4 c2B4c4d4z2  | 
w:  dur *  ma  mey   | 
B4 d2c2 d2B4c2 B2c2  | A4 c2B2 A2G4B6  | \
w:  sun    |   | 
z4 G2B4B8c2  | d8-d2d4e2 d2c2  | 
w:  A man  sâ  |  ki   | 
c4 d2e4f4e4d2  | g8-g2a2 g2f2 e2d2  | \
w:  *  ba na  hiç   |  dur  | 
d2_1/4e2 d2c2 B2B2 ^A2B6  | 
w:  ma  *  mey  *  *  sun    | 
d4 _b2a2 g2g2 =f2g6  | z4 a2a2 g2g2 =f2g4z2  | \
w:  SAZ  |  Ga mım  *  yok   | 
=f2g2 a2a2 g2g2 f2g6  | 
w:  zevk_ *  *  u  *  şev  | 
=f2g2 f4 _1/4e2f2 g2f4e2  | d2c2 d2_1/4e2 =f2g2 a2f2 e2d2  | \
w:  kim   |  had  | 
g4 =f2_1/4e2 d2d2 c2d6  | 
w:  den  ef *  *  zun    | 
d4 _b2a2 g2g2 =f2g6  | z4 a2a2 g2g2 =f2g4z2  | \
w:  SAZ  |  Ga mım  *  yok   | 
=f2g2 a2a2 g2g2 f2g6  | 
w:  zevk_ *  *  u  *  şev  | 
=f2g2 f4 _1/4e2f2 g2f4e2  | d2c2 d2_1/4e2 =f2g2 a2f2 e2d2  | \
w:  kim   |  had  | 
g4 =f2e2 d2d2 c2d6  | 
w:  den  ef *  *  zun    | 
d4 e2d2 c2B2 c2d2 e2f2  | g4 g2f2 e2d2 e2f2 f2e2  | \
w:  SAZ  |  A man  *  *  sâ  | 
d2e2 f4 e2d2 e2f4e2  | 
w:  ki   | 
d4 g2g4g2 a2f2 e2d2  | d4 c2B4c4d4z2  | \
w:  *  ba na  hiç   |  dur *  ma  mey   | 
B4 d2c2 d2B4c2 B2c2  | 
w:  sun    | 
A4 c2B2 A2G4B6  | z4 G2B4B8c2  | d8-d2d4e2 d2c2  | \
w:   |  A man  sâ  |  ki   | 
c4 d2e4f4e4d2  | 
w:  *  ba na  hiç   | 
g8-g2a2 g2f2 e2d2  | d2_1/4e2 d2c2 B2B2 ^A2B6  | |


